X: 155
T: Warwick Court
%R: march, reel
M: 2/4
L: 1/8
Z: 2011,2014 John Chambers <jc:trillian.mit.edu>
B: Chas & Sam Thompson "Twenty Four Country Dances for the Year 1771", London 1771, p.78
K: A
E |\
Ae2c | df2B | GB2G | A[cE][eC][aA,] |\
Ae2c | GB2d | cAGF | E3 :|
|: B |\
GEBE | DB2D | [cC]A2[cC] | [BB,]DGB |\
FdEc | DB[cC]f | edcB | A3 :|
% - - - - - - - - - - - - - - - - - - - - - - - - -
%%begintext align
%% The 1st and 2d Cu. right hands across .|. cast off
%% and left hands across with the 3d Cu :|. the 1st Man
%% heys with the 3d Cu. and the Wo. with the 2d Cu .|:
%% Right and Left at Top :|:
%%endtext
% - - - - - - - - - - - - - - - - - - - - - - - - -
